X:1
T:Title
%%score { ( 1 3 ) | ( 2 4 ) }
L:1/8
M:4/4
K:G
V:1 treble nm="Grand Piano"
V:3 treble 
V:2 treble 
V:4 treble 
V:1
 z4 z2[Q:1/4=88] D>G | B>B B>A A<G G>B |[M:3/4] d>d d>e d2 |[M:1/4] B>B | %4
[M:4/4] [Fd]>[Fd] [FA]>[FA] B>B G>G |[M:3/4] A>E F>G [FA]2 |[M:1/4] [FB]>[CDA] | %7
[M:4/4] [B,DG]2 [DG]2 [CEG]3 [G,CE] | [G,B,D][G,G]- [G,-DG-]>[G,-DG-] [G,-DG-][G,DG]GB | %9
 d2 d2 d2 B2 | [FA]6 [Fd]>[Fc] | B>B B>A A<G G>G | [EA]>[EG] [EG]>[CE] [CE]<[B,D] G>B | %13
 d2 [Ad]2 [Gd]3 [DGB] |[M:3/4] [CA]4 z2 |] %15
V:2
 z4 z2 [G,B,]>[G,B,D] | [G,DG]>[G,DG] [G,DG]>[G,CD] [G,CD]<[G,B,D] [G,B,D]>[G,DG] | %2
[M:3/4] [G,B,G]>[G,B,G] [G,B,G]>[G,CG] [G,B,G]2 |[M:1/4] [G,DG]>[G,DG] | %4
[M:4/4][K:bass] [D,D]>[D,D] [D,D]>[D,D][K:treble] [G,DG]>[G,DG] [B,D]>[B,D] | %5
[M:3/4] [A,CG]>[K:bass][G,A,^C] [F,A,D]>[E,A,E] [D,D]2 |[M:1/4] [D,D]>D, | %7
[M:4/4] G,,2 B,,2 C,3 C, | .G,,2 B,>B, B,B,[K:treble][G,B,D][G,DG] | %9
 [G,B,G]2 [A,CF]2 [B,DG]2 [G,DG]2 | [D,D]6 [D,A,]>[D,D] | %11
 [G,DG]>[G,DG] [G,DG]>[G,CD] [G,CD]<[K:bass][G,B,D] [G,B,D]>[G,B,D] | %12
 [C,C]>[C,C] [C,C]>[C,G,] [G,,G,]<[G,,G,][K:treble] [G,B,D]>[G,DG] | %13
 [G,B,G]2[K:bass] [D,C]2 [G,B,]3 G, |[M:3/4] z2 D2 G,,2 |] %15
V:3
 x8 | x8 |[M:3/4] x6 |[M:1/4] x2 |[M:4/4] x8 |[M:3/4] x6 |[M:1/4] x2 |[M:4/4] x8 | z [B,D] z2 z4 | %9
 x8 | x8 | x8 | x8 | x8 |[M:3/4] F2 z2 [G,B,DG]2 |] %15
V:4
 x8 | x8 |[M:3/4] x6 |[M:1/4] x2 |[M:4/4][K:bass] x4[K:treble] x4 |[M:3/4] x3/2[K:bass] x9/2 | %6
[M:1/4] x2 |[M:4/4] x8 | z G,,3- G,,2[K:treble] z2 | x8 | x8 | x9/2[K:bass] x7/2 | %12
 x6[K:treble] x2 | x2[K:bass] x6 |[M:3/4] D,4 z2 |] %15

